humanity-icon-theme/Humanity/apps/16/gnome-control-centre.svg

<?xml version="1.0" encoding="UTF-8" standalone="no"?>
<!-- Created with Inkscape (http://www.inkscape.org/) -->

<svg
   xmlns:svg="http://www.w3.org/2000/svg"
   xmlns="http://www.w3.org/2000/svg"
   xmlns:xlink="http://www.w3.org/1999/xlink"
   version="1.0"
   width="16"
   height="16"
   id="svg2">
  <defs
     id="defs4">
    <linearGradient
       id="linearGradient6592-0">
      <stop
         id="stop6594-0"
         style="stop-color:#ffffff;stop-opacity:0.27450982"
         offset="0" />
      <stop
         id="stop6596-6"
         style="stop-color:#ffffff;stop-opacity:0"
         offset="1" />
    </linearGradient>
    <linearGradient
       id="linearGradient6560-7">
      <stop
         id="stop6562-8"
         style="stop-color:#edd563;stop-opacity:1"
         offset="0" />
      <stop
         id="stop6564-6"
         style="stop-color:#e08223;stop-opacity:1"
         offset="1" />
    </linearGradient>
    <linearGradient
       id="linearGradient6568-8">
      <stop
         id="stop6570-5"
         style="stop-color:#95602c;stop-opacity:1"
         offset="0" />
      <stop
         id="stop6572-4"
         style="stop-color:#bf8556;stop-opacity:1"
         offset="1" />
    </linearGradient>
    <linearGradient
       x1="12.9375"
       y1="8.4375"
       x2="15.25"
       y2="19.8125"
       id="linearGradient2887"
       xlink:href="#linearGradient6592-0"
       gradientUnits="userSpaceOnUse"
       gradientTransform="matrix(0.41558438,0,0,0.5333333,-1.974026,-0.60000007)" />
    <radialGradient
       cx="12.0987"
       cy="8.1959743"
       r="20.999998"
       fx="12.0987"
       fy="8.1959743"
       id="radialGradient2897"
       xlink:href="#linearGradient6560-7"
       gradientUnits="userSpaceOnUse"
       gradientTransform="matrix(0.55749103,0,0.00498141,0.51884097,-3.1759856,1.8904502)" />
    <linearGradient
       x1="24.875"
       y1="29"
       x2="24.999996"
       y2="3.0000005"
       id="linearGradient2899"
       xlink:href="#linearGradient6568-8"
       gradientUnits="userSpaceOnUse"
       gradientTransform="matrix(0.36585348,0,0,0.51999967,-0.78048296,-0.31999807)" />
    <linearGradient
       x1="314.09293"
       y1="230.78207"
       x2="315.01315"
       y2="229.86185"
       id="linearGradient4521"
       xlink:href="#linearGradient3950"
       gradientUnits="userSpaceOnUse" />
    <linearGradient
       id="linearGradient3950">
      <stop
         id="stop3952"
         style="stop-color:#eeeeec;stop-opacity:1"
         offset="0" />
      <stop
         id="stop3954"
         style="stop-color:#ffffff;stop-opacity:1"
         offset="1" />
    </linearGradient>
    <linearGradient
       x1="312.95822"
       y1="234.93124"
       x2="311"
       y2="220.60095"
       id="linearGradient4523"
       xlink:href="#linearGradient3958"
       gradientUnits="userSpaceOnUse" />
    <linearGradient
       id="linearGradient3958">
      <stop
         id="stop3960"
         style="stop-color:#555753;stop-opacity:1"
         offset="0" />
      <stop
         id="stop3962"
         style="stop-color:#888a85;stop-opacity:1"
         offset="1" />
    </linearGradient>
    <linearGradient
       id="linearGradient3969">
      <stop
         id="stop3971"
         style="stop-color:#ffffff;stop-opacity:1"
         offset="0" />
      <stop
         id="stop3973"
         style="stop-color:#ffffff;stop-opacity:0"
         offset="1" />
    </linearGradient>
    <linearGradient
       x1="97.442131"
       y1="35.152435"
       x2="90.220802"
       y2="35.079365"
       id="linearGradient4528"
       xlink:href="#linearGradient4956"
       gradientUnits="userSpaceOnUse"
       gradientTransform="matrix(0.29294119,-0.29196713,0.25622105,0.25536903,-26.372875,28.656025)" />
    <linearGradient
       id="linearGradient4956">
      <stop
         id="stop4958"
         style="stop-color:#f8b17e;stop-opacity:1"
         offset="0" />
      <stop
         id="stop4960"
         style="stop-color:#e35d4f;stop-opacity:1"
         offset="0.26238" />
      <stop
         id="stop4962"
         style="stop-color:#c6262e;stop-opacity:1"
         offset="0.66347069" />
      <stop
         id="stop4964"
         style="stop-color:#690b54;stop-opacity:1"
         offset="1" />
    </linearGradient>
    <linearGradient
       x1="29.278061"
       y1="34.022705"
       x2="36.000526"
       y2="27.272705"
       id="linearGradient4530"
       xlink:href="#linearGradient2490"
       gradientUnits="userSpaceOnUse"
       gradientTransform="matrix(0.35605432,0,0,0.35511101,-0.700395,-0.30212488)" />
    <linearGradient
       id="linearGradient2490">
      <stop
         id="stop2492"
         style="stop-color:#791235;stop-opacity:1"
         offset="0" />
      <stop
         id="stop2494"
         style="stop-color:#dd3b27;stop-opacity:1"
         offset="1" />
    </linearGradient>
    <radialGradient
       cx="307.65778"
       cy="223.93007"
       r="2.2700634"
       fx="307.65778"
       fy="223.93007"
       id="radialGradient2904"
       xlink:href="#linearGradient3969"
       gradientUnits="userSpaceOnUse"
       gradientTransform="matrix(1.9522293,-1.9522293,1.4892817,1.4892819,-626.26973,490.96044)" />
  </defs>
  <rect
     width="14.999986"
     height="12.999984"
     rx="0.99999988"
     ry="1"
     x="0.50000715"
     y="1.5000079"
     id="rect2716"
     style="fill:url(#radialGradient2897);fill-opacity:1;fill-rule:evenodd;stroke:url(#linearGradient2899);stroke-width:1.00001669;stroke-linecap:butt;stroke-linejoin:miter;stroke-miterlimit:4;stroke-opacity:1;stroke-dasharray:none;display:inline;enable-background:new" />
  <path
     d="m 0,0.99999905 16,0 L 16,5.2666666 0,8.999999 0,0.99999905 z"
     id="rect6588"
     style="fill:url(#linearGradient2887);fill-opacity:1;stroke:none" />
  <rect
     width="6"
     height="5"
     rx="0.99999994"
     ry="0.99999994"
     x="2"
     y="8"
     id="rect3821"
     style="opacity:0.9;fill:#ffffff;fill-opacity:1;stroke:none" />
  <g
     transform="translate(-302.95823,-218.93125)"
     id="g7817"
     style="display:inline;enable-background:new">
    <path
       d="m 306.75,219.5 c -0.37511,0.0471 -0.77839,0.25308 -1.1875,0.65625 l 1.71875,1.6875 c 0.3584,0.36046 0.34912,0.93023 0,1.28125 l -0.125,0.125 c -0.34912,0.35106 -0.92283,0.36044 -1.28125,0 l -1.6875,-1.6875 c -1.15661,1.13978 -0.64599,2.06839 0.125,2.84375 l 0.46875,0.46875 c 0.73274,0.7369 1.86697,0.81164 2.6875,0.21875 l 5.4375,5.4375 1.625,-1.62505 -5.4375,-5.4375 c 0.59284,-0.82529 0.54644,-1.98062 -0.1875,-2.71875 l -0.46875,-0.5 c -0.48639,-0.48917 -1.06232,-0.82854 -1.6875,-0.75 l 0,5e-5 z"
       id="path3935"
       style="fill:url(#linearGradient4521);fill-opacity:1;fill-rule:evenodd;stroke:url(#linearGradient4523);stroke-width:0.89999998;stroke-linecap:round;stroke-linejoin:round;stroke-miterlimit:4;stroke-opacity:1;stroke-dasharray:none;stroke-dashoffset:0.3612;display:inline;enable-background:new" />
    <path
       d="m 305.21569,223.99896 c 1.74834,1.52344 4.48908,-1.00133 2.72395,-2.92439"
       id="path3967"
       style="fill:none;stroke:url(#radialGradient2904);stroke-width:1px;stroke-linecap:butt;stroke-linejoin:miter;stroke-opacity:1;display:inline;enable-background:new" />
  </g>
  <g
     transform="matrix(1.3630182,0,0,1.3616941,-403.81664,-99.958463)"
     id="g7440"
     style="opacity:0.48858445;display:inline;enable-background:new" />
  <rect
     width="4"
     height="1"
     x="3"
     y="9"
     id="rect3823"
     style="opacity:0.3;fill:#000000;fill-opacity:1;stroke:none" />
  <path
     d="m 5.5404811,7.1070703 7.5734559,8.0594767 c 0.496811,0.495162 1.347388,0.430334 1.915401,-0.135789 0.568013,-0.566125 0.633054,-1.413871 0.136243,-1.909032 L 7.0792203,5.5734619 5.5404811,7.1070703 z"
     id="path6899"
     style="fill:url(#linearGradient4528);fill-opacity:1;stroke:url(#linearGradient4530);stroke-width:0.99963278;stroke-linecap:round;stroke-linejoin:round;stroke-miterlimit:4;stroke-opacity:1;stroke-dasharray:none;stroke-dashoffset:0.7;display:inline;enable-background:new" />
</svg>

<?xml version="1.0" encoding="UTF-8" standalone="no"?>
<!-- Created with Inkscape (http://www.inkscape.org/) -->
<svg
   xmlns:svg="http://www.w3.org/2000/svg"
   xmlns="http://www.w3.org/2000/svg"
   xmlns:xlink="http://www.w3.org/1999/xlink"
   version="1.0"
   width="16"
   height="16"
   id="svg3342">
  <defs
     id="defs3344">
    <linearGradient
       id="linearGradient2490">
      <stop
         id="stop2492"
         style="stop-color:#791235;stop-opacity:1"
         offset="0" />
      <stop
         id="stop2494"
         style="stop-color:#dd3b27;stop-opacity:1"
         offset="1" />
    </linearGradient>
    <linearGradient
       x1="29.278061"
       y1="34.022705"
       x2="36.000526"
       y2="27.272705"
       id="linearGradient4530"
       xlink:href="#linearGradient2490"
       gradientUnits="userSpaceOnUse"
       gradientTransform="matrix(0.3560543,0,0,0.355111,-0.700395,-0.3021249)" />
    <linearGradient
       id="linearGradient4956">
      <stop
         id="stop4958"
         style="stop-color:#f8b17e;stop-opacity:1"
         offset="0" />
      <stop
         id="stop4960"
         style="stop-color:#e35d4f;stop-opacity:1"
         offset="0.26238" />
      <stop
         id="stop4962"
         style="stop-color:#c6262e;stop-opacity:1"
         offset="0.66347069" />
      <stop
         id="stop4964"
         style="stop-color:#690b54;stop-opacity:1"
         offset="1" />
    </linearGradient>
    <linearGradient
       x1="97.442131"
       y1="35.152435"
       x2="90.220802"
       y2="35.079365"
       id="linearGradient4528"
       xlink:href="#linearGradient4956"
       gradientUnits="userSpaceOnUse"
       gradientTransform="matrix(0.2929412,-0.2919671,0.256221,0.255369,-26.372875,28.656025)" />
    <linearGradient
       id="linearGradient3969">
      <stop
         id="stop3971"
         style="stop-color:#ffffff;stop-opacity:1"
         offset="0" />
      <stop
         id="stop3973"
         style="stop-color:#ffffff;stop-opacity:0"
         offset="1" />
    </linearGradient>
    <radialGradient
       cx="307.65778"
       cy="223.93007"
       r="2.2700634"
       fx="307.65778"
       fy="223.93007"
       id="radialGradient2904"
       xlink:href="#linearGradient3969"
       gradientUnits="userSpaceOnUse"
       gradientTransform="matrix(1.9522293,-1.9522293,1.4892817,1.4892819,-626.26973,490.96044)" />
    <linearGradient
       id="linearGradient3958">
      <stop
         id="stop3960"
         style="stop-color:#555753;stop-opacity:1"
         offset="0" />
      <stop
         id="stop3962"
         style="stop-color:#888a85;stop-opacity:1"
         offset="1" />
    </linearGradient>
    <linearGradient
       x1="312.95822"
       y1="234.93124"
       x2="311"
       y2="220.60095"
       id="linearGradient4523"
       xlink:href="#linearGradient3958"
       gradientUnits="userSpaceOnUse" />
    <linearGradient
       id="linearGradient3950">
      <stop
         id="stop3952"
         style="stop-color:#eeeeec;stop-opacity:1"
         offset="0" />
      <stop
         id="stop3954"
         style="stop-color:#ffffff;stop-opacity:1"
         offset="1" />
    </linearGradient>
    <linearGradient
       x1="314.09293"
       y1="230.78207"
       x2="315.01315"
       y2="229.86185"
       id="linearGradient4521"
       xlink:href="#linearGradient3950"
       gradientUnits="userSpaceOnUse" />
    <linearGradient
       id="linearGradient2238">
      <stop
         id="stop2240"
         style="stop-color:#ffffff;stop-opacity:1"
         offset="0" />
      <stop
         id="stop2242"
         style="stop-color:#ffffff;stop-opacity:0"
         offset="1" />
    </linearGradient>
    <linearGradient
       id="linearGradient3282">
      <stop
         id="stop3284"
         style="stop-color:#000000;stop-opacity:1"
         offset="0" />
      <stop
         id="stop3286"
         style="stop-color:#000000;stop-opacity:0"
         offset="1" />
    </linearGradient>
    <linearGradient
       x1="33.579403"
       y1="5.7086449"
       x2="33.579403"
       y2="16.323294"
       id="linearGradient2414"
       xlink:href="#linearGradient2536"
       gradientUnits="userSpaceOnUse"
       gradientTransform="matrix(0.2716144,0,0,0.2198978,-0.7524457,7.76258e-2)" />
    <linearGradient
       x1="16.91585"
       y1="7.0006418"
       x2="16.91585"
       y2="14"
       id="linearGradient2416"
       xlink:href="#linearGradient2529"
       gradientUnits="userSpaceOnUse"
       gradientTransform="matrix(0.3333333,0,0,0.3333689,7.1074495e-4,-1.0004803)" />
    <linearGradient
       x1="24.682861"
       y1="9.2416716"
       x2="24.682861"
       y2="13.523027"
       id="linearGradient2419"
       xlink:href="#linearGradient3282"
       gradientUnits="userSpaceOnUse"
       gradientTransform="matrix(0.3042808,0,0,0.2340042,0.6993307,2.8374077)" />
    <linearGradient
       x1="24.675762"
       y1="1.6925697"
       x2="24.675762"
       y2="44.295784"
       id="linearGradient2422"
       xlink:href="#linearGradient2238"
       gradientUnits="userSpaceOnUse"
       gradientTransform="matrix(0.2885901,0,0,0.281741,1.0734846,1.5216393)" />
    <radialGradient
       cx="26.616697"
       cy="-2.0644982"
       r="23"
       fx="26.616697"
       fy="-2.0644982"
       id="radialGradient2425"
       xlink:href="#linearGradient3242-593-605-251-305"
       gradientUnits="userSpaceOnUse"
       gradientTransform="matrix(0,-0.3743803,0.4655272,0,11.988014,19.393247)" />
    <linearGradient
       x1="10.014208"
       y1="44.960102"
       x2="10.014208"
       y2="-11.86743"
       id="linearGradient2427"
       xlink:href="#linearGradient3332-412-419-652-471"
       gradientUnits="userSpaceOnUse"
       gradientTransform="matrix(0.3191203,0,0,0.3174019,0.3411154,0.3333387)" />
    <linearGradient
       id="linearGradient3332-412-419-652-471">
      <stop
         id="stop2759"
         style="stop-color:#650d5c;stop-opacity:1"
         offset="0" />
      <stop
         id="stop2761"
         style="stop-color:#ad53a5;stop-opacity:1"
         offset="1" />
    </linearGradient>
    <linearGradient
       id="linearGradient3242-593-605-251-305">
      <stop
         id="stop2749"
         style="stop-color:#d78ec1;stop-opacity:1"
         offset="0" />
      <stop
         id="stop2751"
         style="stop-color:#c564be;stop-opacity:1"
         offset="0.26238" />
      <stop
         id="stop2753"
         style="stop-color:#9d3ea4;stop-opacity:1"
         offset="0.66093999" />
      <stop
         id="stop2755"
         style="stop-color:#5e2c73;stop-opacity:1"
         offset="1" />
    </linearGradient>
    <linearGradient
       id="linearGradient2529">
      <stop
         id="stop2531"
         style="stop-color:#aeae94;stop-opacity:1"
         offset="0" />
      <stop
         id="stop2533"
         style="stop-color:#626337;stop-opacity:1"
         offset="1" />
    </linearGradient>
    <linearGradient
       id="linearGradient2536">
      <stop
         id="stop2538"
         style="stop-color:#fdfdf8;stop-opacity:1"
         offset="0" />
      <stop
         id="stop2555"
         style="stop-color:#d6d3b4;stop-opacity:1"
         offset="1" />
    </linearGradient>
  </defs>
  <rect
     width="14.997868"
     height="12.997867"
     rx="1.5284374"
     ry="1.5617938"
     x="0.50106621"
     y="1.5010664"
     id="rect1316"
     style="fill:url(#radialGradient2425);fill-opacity:1;fill-rule:evenodd;stroke:url(#linearGradient2427);stroke-width:1.00213289;stroke-linecap:round;stroke-linejoin:round;marker:none;marker-start:none;marker-mid:none;marker-end:none;stroke-miterlimit:4;stroke-dasharray:none;stroke-dashoffset:0;stroke-opacity:1;visibility:visible;display:inline;overflow:visible;enable-background:accumulate" />
  <rect
     width="12.997868"
     height="10.997867"
     rx="0.53651923"
     ry="0.53651923"
     x="1.5010662"
     y="2.5010664"
     id="rect2232"
     style="opacity:0.4;fill:none;stroke:url(#linearGradient2422);stroke-width:1.00213301;stroke-linecap:round;stroke-linejoin:round;stroke-miterlimit:4;stroke-dasharray:none;stroke-dashoffset:0;stroke-opacity:1" />
  <rect
     width="14"
     height="1"
     rx="0"
     ry="0"
     x="1"
     y="5"
     id="rect1436"
     style="opacity:0.2;fill:url(#linearGradient2419);fill-opacity:1;fill-rule:evenodd;stroke:none;stroke-width:1.00000012;stroke-linecap:butt;stroke-linejoin:miter;marker:none;marker-start:none;marker-mid:none;marker-end:none;stroke-miterlimit:4;stroke-dasharray:none;stroke-dashoffset:0;stroke-opacity:1;visibility:visible;display:inline;overflow:visible" />
  <path
     d="M 1.500711,1.5000001 C 1.500711,1.5000001 14.612789,1.5028629 14.612789,1.5028629 C 15.13443,1.5028629 15.500711,1.9233048 15.500711,2.3885518 C 15.500711,2.3885518 15.500711,4.5 15.500711,4.5 C 15.500711,4.5 0.50071114,4.5 0.50071114,4.5 C 0.50071114,4.5 0.50071114,2.3885518 0.50071114,2.3885518 C 0.50071114,1.8926584 0.90363933,1.5000001 1.500711,1.5000001 z"
     id="rect2311"
     style="fill:url(#linearGradient2414);fill-opacity:1;fill-rule:evenodd;stroke:url(#linearGradient2416);stroke-width:1;stroke-linecap:butt;stroke-linejoin:miter;marker:none;marker-start:none;marker-mid:none;marker-end:none;stroke-miterlimit:4;stroke-dasharray:none;stroke-dashoffset:0;stroke-opacity:1;visibility:visible;display:inline;overflow:visible" />
  <rect
     width="6"
     height="5"
     rx="0.99999994"
     ry="0.99999994"
     x="2"
     y="8"
     id="rect3821"
     style="opacity:0.9;fill:#ffffff;fill-opacity:1;stroke:none" />
  <g
     transform="translate(-302.95823,-218.93125)"
     id="g7817"
     style="display:inline;enable-background:new">
    <path
       d="M 306.75,219.5 C 306.37489,219.5471 305.97161,219.75308 305.5625,220.15625 L 307.28125,221.84375 C 307.63965,222.20421 307.63037,222.77398 307.28125,223.125 L 307.15625,223.25 C 306.80713,223.60106 306.23342,223.61044 305.875,223.25 L 304.1875,221.5625 C 303.03089,222.70228 303.54151,223.63089 304.3125,224.40625 L 304.78125,224.875 C 305.51399,225.6119 306.64822,225.68664 307.46875,225.09375 L 312.90625,230.53125 L 314.53125,228.9062 L 309.09375,223.4687 C 309.68659,222.64341 309.64019,221.48808 308.90625,220.74995 L 308.4375,220.24995 C 307.95111,219.76078 307.37518,219.42141 306.75,219.49995 L 306.75,219.5 z"
       id="path3935"
       style="fill:url(#linearGradient4521);fill-opacity:1;fill-rule:evenodd;stroke:url(#linearGradient4523);stroke-width:0.89999998;stroke-linecap:round;stroke-linejoin:round;stroke-miterlimit:4;stroke-dasharray:none;stroke-dashoffset:0.3612;stroke-opacity:1;display:inline;enable-background:new" />
    <path
       d="M 305.21569,223.99896 C 306.96403,225.5224 309.70477,222.99763 307.93964,221.07457"
       id="path3967"
       style="fill:none;stroke:url(#radialGradient2904);stroke-width:1px;stroke-linecap:butt;stroke-linejoin:miter;stroke-opacity:1;display:inline;enable-background:new" />
  </g>
  <rect
     width="4"
     height="1"
     x="3"
     y="9"
     id="rect3823"
     style="opacity:0.3;fill:#000000;fill-opacity:1;stroke:none" />
  <path
     d="M 5.5404811,7.1070703 L 13.113937,15.166547 C 13.610748,15.661709 14.461325,15.596881 15.029338,15.030758 C 15.597351,14.464633 15.662392,13.616887 15.165581,13.121726 L 7.0792203,5.5734619 L 5.5404811,7.1070703 z"
     id="path6899"
     style="fill:url(#linearGradient4528);fill-opacity:1;stroke:url(#linearGradient4530);stroke-width:0.99963278;stroke-linecap:round;stroke-linejoin:round;stroke-miterlimit:4;stroke-dasharray:none;stroke-dashoffset:0.7;stroke-opacity:1;display:inline;enable-background:new" />
</svg>
